X:0815
T:Mr. P.P. Shirreff's Favorite.
M:6/8
L:1/8
Q:3/8=56 "Slow"
I: :: ||
Z:Jack Campin * www.campin.me.uk * 2009
K:D
D/E/|{DE}F>ED    EFA|B>AF    A2d/e/|f>ed    B>cd/B/|AFE E2
D/E/|{DE}F>ED    EFA|B>AF    A2d/e/|f>ed    B>cd/B/|AFD D2:|
d   |    f>ga/b/ afd|e>de/f/ edB   |f>ga/b/ afd    |fee e2
d   |    f>ga/b/ afd|e>de/f/ edB   |D>FA/B/ deg    |fed d2:|
<end>
<start>
